wp-content/themes/mw/assets/dist/images/metalworking-download-icon.svg

<?xml version="1.0" encoding="UTF-8"?>
<svg width="52px" height="52px" viewBox="0 0 52 52" version="1.1" xmlns="http://www.w3.org/2000/svg" xmlns:xlink="http://www.w3.org/1999/xlink">
    <!-- Generator: Sketch 48 (47235) - http://www.bohemiancoding.com/sketch -->
    <title>Group 5 Copy 2</title>
    <desc>Created with Sketch.</desc>
    <defs></defs>
    <g id="Download" stroke="none" stroke-width="1" fill="none" fill-rule="evenodd" transform="translate(-1011.000000, -1284.000000)">
        <g id="Group-5-Copy-2" transform="translate(1011.000000, 1284.000000)" fill="#C6C5C5">
            <path d="M37.2130136,28 C36.7781506,28 36.4256423,28.3592333 36.4256423,28.8020001 L36.4256423,34.3018775 C36.4256423,34.3465856 36.3748441,34.3959998 36.3021104,34.3959998 L14.6975047,34.3959998 C14.6251559,34.3959998 14.5739729,34.3465856 14.5739729,34.3018775 L14.5739729,28.8020001 C14.5739729,28.3592333 14.2218494,28 13.7869864,28 C13.3521235,28 13,28.3592333 13,28.8020001 L13,34.3018775 C13,35.238394 13.7615874,36 14.6975047,36 L36.3021104,36 C37.2380278,36 38,35.238394 38,34.3018775 L38,28.8020001 C38,28.3592333 37.6474916,28 37.2130136,28" id="Fill-1"></path>
            <path d="M24.9454816,29.7641216 C25.0924069,29.9153358 25.2918878,30 25.5001918,30 C25.7081122,30 25.9079767,29.9153358 26.0552856,29.7641216 L32.7701175,22.8708816 C33.0766275,22.5562459 33.0766275,22.0462918 32.7701175,21.7320499 C32.4639912,21.4174141 31.9672071,21.4174141 31.6606972,21.7320499 L26.2846886,27.250186 L26.2846886,12.8052942 C26.2846886,12.3607088 25.933679,12 25.5001918,12 C25.0667046,12 24.7153114,12.3607088 24.7153114,12.8052942 L24.7153114,27.250186 L19.3396865,21.7320499 C19.0331765,21.4174141 18.5363925,21.4174141 18.2298825,21.7320499 C17.9233725,22.0462918 17.9233725,22.5562459 18.2298825,22.8708816 L24.9454816,29.7641216 Z" id="Fill-3"></path>
            <path d="M26,1.55223881 C12.5195821,1.55223881 1.55223881,12.5195821 1.55223881,26 C1.55223881,39.4804179 12.5195821,50.4477612 26,50.4477612 C39.4804179,50.4477612 50.4477612,39.4804179 50.4477612,26 C50.4477612,12.5195821 39.4804179,1.55223881 26,1.55223881 M26,52 C11.6635224,52 0,40.3364776 0,26 C0,11.6635224 11.6635224,0 26,0 C40.3364776,0 52,11.6635224 52,26 C52,40.3364776 40.3364776,52 26,52" id="Fill-5"></path>
        </g>
    </g>
</svg>

<svg width="52" height="52" viewBox="0 0 52 52" xmlns="http://www.w3.org/2000/svg"><title>Group 5 Copy 2</title><g fill="#C6C5C5" fill-rule="evenodd"><path d="M37.213 28a.795.795 0 0 0-.787.802v5.5c0 .045-.051.094-.124.094H14.698c-.073 0-.124-.05-.124-.094v-5.5a.795.795 0 0 0-.787-.802.795.795 0 0 0-.787.802v5.5A1.7 1.7 0 0 0 14.698 36h21.604A1.7 1.7 0 0 0 38 34.302v-5.5a.795.795 0 0 0-.787-.802"/><path d="M24.945 29.764a.773.773 0 0 0 1.11 0l6.715-6.893a.82.82 0 0 0 0-1.139.77.77 0 0 0-1.11 0l-5.375 5.518V12.805A.795.795 0 0 0 25.5 12a.795.795 0 0 0-.785.805V27.25l-5.375-5.518a.77.77 0 0 0-1.11 0 .82.82 0 0 0 0 1.139l6.715 6.893z"/><path d="M26 1.552C12.52 1.552 1.552 12.52 1.552 26S12.52 50.448 26 50.448 50.448 39.48 50.448 26 39.48 1.552 26 1.552M26 52C11.664 52 0 40.336 0 26S11.664 0 26 0s26 11.664 26 26-11.664 26-26 26"/></g></svg>
